fs/arrow_circle_down_28_regular.svg

<svg viewBox="0 0 28 28" fill="none" xmlns="http://www.w3.org/2000/svg" height="1em" width="1em">
  <path d="M8.96967 14.2197C9.26256 13.9268 9.73744 13.9268 10.0303 14.2197L13.25 17.4393V8.75C13.25 8.33579 13.5858 8 14 8C14.4142 8 14.75 8.33579 14.75 8.75V17.4393L17.9697 14.2197C18.2626 13.9268 18.7374 13.9268 19.0303 14.2197C19.3232 14.5126 19.3232 14.9874 19.0303 15.2803L14.5303 19.7803C14.2374 20.0732 13.7626 20.0732 13.4697 19.7803L8.96967 15.2803C8.67678 14.9874 8.67678 14.5126 8.96967 14.2197ZM2 14C2 7.37258 7.37258 2 14 2C20.6274 2 26 7.37258 26 14C26 20.6274 20.6274 26 14 26C7.37258 26 2 20.6274 2 14ZM14 3.5C8.20101 3.5 3.5 8.20101 3.5 14C3.5 19.799 8.20101 24.5 14 24.5C19.799 24.5 24.5 19.799 24.5 14C24.5 8.20101 19.799 3.5 14 3.5Z" fill="#212121"/>
</svg>

<svg viewBox="0 0 28 28" fill="none" xmlns="http://www.w3.org/2000/svg" height="1em" width="1em">
  <path d="M8.97 14.22a.75.75 0 0 1 1.06 0l3.22 3.22V8.75a.75.75 0 0 1 1.5 0v8.69l3.22-3.22a.75.75 0 1 1 1.06 1.06l-4.5 4.5a.75.75 0 0 1-1.06 0l-4.5-4.5a.75.75 0 0 1 0-1.06ZM2 14C2 7.373 7.373 2 14 2s12 5.373 12 12-5.373 12-12 12S2 20.627 2 14ZM14 3.5C8.201 3.5 3.5 8.201 3.5 14S8.201 24.5 14 24.5 24.5 19.799 24.5 14 19.799 3.5 14 3.5Z" fill="#212121"/>
</svg>
